build/img/svg-sprite/customization.svg

<svg width="75" height="75" viewBox="0 0 75 75" fill="none" xmlns="http://www.w3.org/2000/svg">
<g clip-path="url(#clip0)">
<path d="M8.02288 4.21777C6.24447 4.21777 4.79794 5.66431 4.79794 7.44272C4.79794 9.22056 6.24447 10.6671 8.02288 10.6671C9.80072 10.6671 11.2473 9.22056 11.2473 7.44272C11.2473 5.66431 9.80072 4.21777 8.02288 4.21777ZM8.02288 8.46925C7.4564 8.46925 6.99577 8.00863 6.99577 7.44272C6.99577 6.87624 7.4564 6.41561 8.02288 6.41561C8.58879 6.41561 9.04999 6.87624 9.04999 7.44272C9.04999 8.00863 8.58879 8.46925 8.02288 8.46925Z" fill="#EF8B54"/>
<path d="M16.2329 4.21777C14.4545 4.21777 13.0079 5.66431 13.0079 7.44272C13.0079 9.22056 14.455 10.6671 16.2329 10.6671C18.0107 10.6671 19.4572 9.22056 19.4572 7.44272C19.4572 5.66431 18.0107 4.21777 16.2329 4.21777ZM16.2329 8.46925C15.6664 8.46925 15.2058 8.00863 15.2058 7.44272C15.2058 6.87624 15.6664 6.41561 16.2329 6.41561C16.7988 6.41561 17.26 6.87624 17.26 7.44272C17.26 8.00863 16.7988 8.46925 16.2329 8.46925Z" fill="#EF8B54"/>
<path d="M24.4429 4.21777C22.6645 4.21777 21.2179 5.66431 21.2179 7.44272C21.2179 9.22056 22.6645 10.6671 24.4429 10.6671C26.2207 10.6671 27.6672 9.22056 27.6672 7.44272C27.6672 5.66431 26.2207 4.21777 24.4429 4.21777ZM24.4429 8.46925C23.8764 8.46925 23.4158 8.00863 23.4158 7.44272C23.4158 6.87624 23.8764 6.41561 24.4429 6.41561C25.0088 6.41561 25.47 6.87624 25.47 7.44272C25.47 8.00863 25.0093 8.46925 24.4429 8.46925Z" fill="#EF8B54"/>
<path d="M70.1637 0H4.8357C2.16923 0 0 2.16923 0 4.8357V70.1637C0 72.8302 2.16923 75 4.8357 75H70.1637C72.8302 75 75 72.8302 75 70.1637V53.5183C75 52.9112 74.5079 52.4191 73.9008 52.4191C73.2943 52.4191 72.8022 52.9112 72.8022 53.5183V70.1637C72.8022 71.6188 71.6188 72.8022 70.1637 72.8022H4.8357C3.38116 72.8022 2.19784 71.6188 2.19784 70.1637V14.9471H72.8022V46.7308C72.8022 47.3373 73.2943 47.8294 73.9014 47.8294C74.5079 47.8294 75 47.3373 75 46.7308V4.8357C75 2.16923 72.8308 0 70.1637 0V0ZM72.8022 12.7493H2.19784V4.8357C2.19784 3.38116 3.38116 2.19784 4.8357 2.19784H70.1637C71.6188 2.19784 72.8022 3.38116 72.8022 4.8357V12.7493Z" fill="#EF8B54"/>
<path d="M67.5991 22.6947C67.5991 20.7784 66.0404 19.2197 64.1247 19.2197H10.7111C8.79536 19.2197 7.23667 20.7784 7.23667 22.6947V29.1492C7.23667 29.7563 7.72877 30.2478 8.3353 30.2478C8.94241 30.2478 9.43451 29.7563 9.43451 29.1492V22.6947C9.43451 21.9903 10.0073 21.4176 10.7111 21.4176H64.1247C64.8285 21.4176 65.4013 21.9903 65.4013 22.6947V42.81C65.4013 43.5138 64.8285 44.0866 64.1247 44.0866H60.6657L49.4019 31.3922C49.0728 31.022 48.6008 30.8011 48.1052 30.7863C47.6103 30.7697 47.1256 30.9637 46.7754 31.3138L40.8091 37.2774L32.7719 28.2199C32.4434 27.8491 31.9708 27.6283 31.4758 27.6134C30.9809 27.6008 30.4962 27.7908 30.1455 28.141L14.1924 44.0866H10.7111C10.0073 44.0866 9.43451 43.5138 9.43451 42.81V36.0832C9.43451 35.4761 8.94241 34.984 8.3353 34.984C7.72877 34.984 7.23667 35.4761 7.23667 36.0832V42.81C7.23667 44.7257 8.79536 46.2844 10.7111 46.2844H64.1247C66.0404 46.2844 67.5991 44.7257 67.5991 42.81V22.6947ZM17.3012 44.0866L31.4049 29.9898L42.0977 42.0404C42.5005 42.4947 43.1952 42.5359 43.6489 42.1331C44.1027 41.7303 44.1444 41.0356 43.7416 40.5818L42.2705 38.9242L48.0349 33.1626L57.728 44.0866H17.3012Z" fill="#EF8B54"/>
<path d="M10.7105 49.3613C8.79478 49.3613 7.23667 50.9194 7.23667 52.8346V63.6149C7.23667 65.5307 8.79478 67.0888 10.7105 67.0888H31.9662C33.8814 67.0888 35.4401 65.5307 35.4401 63.6149V52.8346C35.4401 50.9194 33.8814 49.3613 31.9662 49.3613H10.7105ZM33.2422 52.8346V63.6149C33.2422 64.3188 32.6694 64.891 31.9662 64.891H10.7105C10.0067 64.891 9.43451 64.3188 9.43451 63.6149V52.8346C9.43451 52.1314 10.0067 51.5586 10.7105 51.5586H31.9662C32.6694 51.5586 33.2422 52.1314 33.2422 52.8346Z" fill="#EF8B54"/>
<path d="M42.8696 49.3613C40.9538 49.3613 39.3957 50.9194 39.3957 52.8346V63.6149C39.3957 65.5307 40.9538 67.0888 42.8696 67.0888H64.1253C66.0404 67.0888 67.5991 65.5307 67.5991 63.6149V52.8346C67.5991 50.9194 66.0404 49.3613 64.1253 49.3613H42.8696ZM65.4013 52.8346V63.6149C65.4013 64.3188 64.8285 64.891 64.1253 64.891H42.8696C42.1658 64.891 41.5936 64.3188 41.5936 63.6149V52.8346C41.5936 52.1314 42.1658 51.5586 42.8696 51.5586H64.1253C64.8285 51.5586 65.4013 52.1314 65.4013 52.8346Z" fill="#EF8B54"/>
<path d="M12.8408 55.7042H15.8117C16.4188 55.7042 16.9104 55.2127 16.9104 54.6056C16.9104 53.9984 16.4188 53.5063 15.8117 53.5063H12.8408C12.2337 53.5063 11.7416 53.9984 11.7416 54.6056C11.7416 55.2127 12.2337 55.7042 12.8408 55.7042Z" fill="#EF8B54"/>
<path d="M12.8408 59.4268H14.3858C14.9923 59.4268 15.4844 58.9352 15.4844 58.3281C15.4844 57.721 14.9923 57.2295 14.3858 57.2295H12.8408C12.2337 57.2295 11.7416 57.721 11.7416 58.3281C11.7416 58.9352 12.2337 59.4268 12.8408 59.4268Z" fill="#EF8B54"/>
<path d="M29.8359 57.2295H25.7338C25.1266 57.2295 24.6346 57.721 24.6346 58.3281C24.6346 58.9352 25.1266 59.4268 25.7338 59.4268H29.8359C30.443 59.4268 30.9345 58.9352 30.9345 58.3281C30.9345 57.721 30.443 57.2295 29.8359 57.2295Z" fill="#EF8B54"/>
<path d="M19.5803 55.7042H29.5429C30.1495 55.7042 30.6416 55.2127 30.6416 54.6056C30.6416 53.9984 30.1495 53.5063 29.5429 53.5063H19.5803C18.9732 53.5063 18.4816 53.9984 18.4816 54.6056C18.4816 55.2127 18.9732 55.7042 19.5803 55.7042Z" fill="#EF8B54"/>
<path d="M29.5429 60.7458H26.5715C25.9649 60.7458 25.4728 61.2374 25.4728 61.8445C25.4728 62.4516 25.9649 62.9437 26.5715 62.9437H29.5429C30.1495 62.9437 30.6416 62.4516 30.6416 61.8445C30.6416 61.2374 30.1495 60.7458 29.5429 60.7458Z" fill="#EF8B54"/>
<path d="M22.8035 60.7458H12.8408C12.2337 60.7458 11.7416 61.2374 11.7416 61.8445C11.7416 62.4516 12.2337 62.9437 12.8408 62.9437H22.8035C23.41 62.9437 23.9021 62.4516 23.9021 61.8445C23.9021 61.2374 23.41 60.7458 22.8035 60.7458Z" fill="#EF8B54"/>
<path d="M17.7921 59.4268H22.0711C22.6776 59.4268 23.1697 58.9352 23.1697 58.3281C23.1697 57.721 22.6776 57.2295 22.0711 57.2295H17.7921C17.1856 57.2295 16.6935 57.721 16.6935 58.3281C16.6935 58.9352 17.1856 59.4268 17.7921 59.4268Z" fill="#EF8B54"/>
<path d="M44.9999 55.7042H47.9708C48.5779 55.7042 49.0694 55.2127 49.0694 54.6056C49.0694 53.9984 48.5779 53.5063 47.9708 53.5063H44.9999C44.3928 53.5063 43.9007 53.9984 43.9007 54.6056C43.9007 55.2127 44.3928 55.7042 44.9999 55.7042Z" fill="#EF8B54"/>
<path d="M44.9999 59.4268H46.5448C47.1514 59.4268 47.6435 58.9352 47.6435 58.3281C47.6435 57.721 47.1514 57.2295 46.5448 57.2295H44.9999C44.3928 57.2295 43.9007 57.721 43.9007 58.3281C43.9007 58.9352 44.3928 59.4268 44.9999 59.4268Z" fill="#EF8B54"/>
<path d="M61.9949 57.2295H57.8928C57.2857 57.2295 56.7936 57.721 56.7936 58.3281C56.7936 58.9352 57.2857 59.4268 57.8928 59.4268H61.9949C62.6015 59.4268 63.0936 58.9352 63.0936 58.3281C63.0936 57.721 62.6015 57.2295 61.9949 57.2295Z" fill="#EF8B54"/>
<path d="M51.7393 55.7042H61.702C62.3085 55.7042 62.8006 55.2127 62.8006 54.6056C62.8006 53.9984 62.3085 53.5063 61.702 53.5063H51.7393C51.1322 53.5063 50.6401 53.9984 50.6401 54.6056C50.6401 55.2127 51.1322 55.7042 51.7393 55.7042Z" fill="#EF8B54"/>
<path d="M61.702 60.7458H58.7305C58.124 60.7458 57.6319 61.2374 57.6319 61.8445C57.6319 62.4516 58.124 62.9437 58.7305 62.9437H61.702C62.3085 62.9437 62.8006 62.4516 62.8006 61.8445C62.8006 61.2374 62.3085 60.7458 61.702 60.7458Z" fill="#EF8B54"/>
<path d="M54.9625 60.7458H44.9999C44.3928 60.7458 43.9007 61.2374 43.9007 61.8445C43.9007 62.4516 44.3928 62.9437 44.9999 62.9437H54.9625C55.5691 62.9437 56.0612 62.4516 56.0612 61.8445C56.0612 61.2374 55.5691 60.7458 54.9625 60.7458Z" fill="#EF8B54"/>
<path d="M49.9512 59.4268H54.2301C54.8367 59.4268 55.3288 58.9352 55.3288 58.3281C55.3288 57.721 54.8367 57.2295 54.2301 57.2295H49.9512C49.3446 57.2295 48.8525 57.721 48.8525 58.3281C48.8525 58.9352 49.3446 59.4268 49.9512 59.4268Z" fill="#EF8B54"/>
<path d="M59.9596 27.3606C59.9596 25.0534 58.0828 23.176 55.7751 23.176C53.4679 23.176 51.5905 25.0534 51.5905 27.3606C51.5905 29.6683 53.4679 31.5457 55.7751 31.5457C58.0828 31.5457 59.9596 29.6683 59.9596 27.3606ZM53.7884 27.3606C53.7884 26.2648 54.6793 25.3739 55.7751 25.3739C56.8708 25.3739 57.7623 26.2648 57.7623 27.3606C57.7623 28.4563 56.8708 29.3478 55.7751 29.3478C54.6793 29.3478 53.7884 28.4563 53.7884 27.3606Z" fill="#EF8B54"/>
</g>
<defs>
<clipPath id="clip0">
<rect width="75" height="75" fill="white"/>
</clipPath>
</defs>
</svg>

<svg width="75" height="75" viewBox="0 0 75 75" fill="none" xmlns="http://www.w3.org/2000/svg"><g clip-path="url(#clip0)" fill="#EF8B54"><path d="M8.023 4.218a3.228 3.228 0 00-3.225 3.225 3.228 3.228 0 003.225 3.224 3.228 3.228 0 003.224-3.224 3.228 3.228 0 00-3.224-3.225zm0 4.251a1.028 1.028 0 010-2.053 1.028 1.028 0 010 2.053zm8.21-4.251a3.228 3.228 0 00-3.225 3.225 3.229 3.229 0 003.225 3.224 3.228 3.228 0 003.224-3.224 3.228 3.228 0 00-3.224-3.225zm0 4.251a1.028 1.028 0 010-2.053 1.028 1.028 0 010 2.053zm8.21-4.251a3.228 3.228 0 00-3.225 3.225 3.228 3.228 0 003.225 3.224 3.228 3.228 0 003.224-3.224 3.228 3.228 0 00-3.224-3.225zm0 4.251a1.028 1.028 0 010-2.053 1.027 1.027 0 010 2.053z"/><path d="M70.164 0H4.836A4.841 4.841 0 000 4.836v65.328A4.842 4.842 0 004.836 75h65.328A4.842 4.842 0 0075 70.164V53.518a1.1 1.1 0 10-2.198 0v16.646a2.641 2.641 0 01-2.638 2.638H4.836a2.641 2.641 0 01-2.638-2.638V14.947h70.604v31.784a1.099 1.099 0 002.198 0V4.836A4.841 4.841 0 0070.164 0zm2.638 12.75H2.198V4.835a2.64 2.64 0 012.638-2.638h65.328a2.641 2.641 0 012.638 2.638v7.913z"/><path d="M67.6 22.695a3.479 3.479 0 00-3.475-3.475H10.71a3.479 3.479 0 00-3.474 3.475v6.454a1.099 1.099 0 102.198 0v-6.454c0-.705.572-1.277 1.276-1.277h53.414c.704 0 1.276.572 1.276 1.277V42.81c0 .704-.572 1.277-1.276 1.277h-3.46L49.403 31.392a1.804 1.804 0 00-2.627-.078l-5.966 5.963-8.037-9.057a1.81 1.81 0 00-1.296-.607 1.822 1.822 0 00-1.33.528L14.191 44.087h-3.48a1.278 1.278 0 01-1.277-1.277v-6.727a1.1 1.1 0 10-2.198 0v6.727a3.478 3.478 0 003.474 3.474h53.414a3.478 3.478 0 003.474-3.474V22.695zM17.3 44.087L31.405 29.99l10.693 12.05a1.098 1.098 0 101.644-1.458l-1.471-1.658 5.764-5.761 9.693 10.924H17.301zm-6.59 5.274a3.477 3.477 0 00-3.473 3.474v10.78a3.477 3.477 0 003.473 3.474h21.256a3.478 3.478 0 003.474-3.474v-10.78a3.478 3.478 0 00-3.474-3.474H10.71zm22.532 3.474v10.78c0 .704-.573 1.276-1.276 1.276H10.71a1.277 1.277 0 01-1.275-1.276v-10.78c0-.704.572-1.276 1.275-1.276h21.256c.703 0 1.276.572 1.276 1.276zm9.628-3.474a3.477 3.477 0 00-3.474 3.474v10.78a3.477 3.477 0 003.474 3.474h21.255a3.478 3.478 0 003.474-3.474v-10.78a3.478 3.478 0 00-3.474-3.474H42.87zm22.53 3.474v10.78c0 .704-.572 1.276-1.276 1.276H42.87a1.277 1.277 0 01-1.276-1.276v-10.78c0-.704.572-1.276 1.276-1.276h21.255c.704 0 1.276.572 1.276 1.276z"/><path d="M12.84 55.704h2.972a1.098 1.098 0 100-2.198H12.84a1.1 1.1 0 100 2.198zm0 3.723h1.546a1.099 1.099 0 000-2.197H12.84a1.099 1.099 0 100 2.197zm16.996-2.197h-4.102a1.099 1.099 0 100 2.197h4.102a1.098 1.098 0 100-2.197zM19.58 55.704h9.963a1.099 1.099 0 100-2.198H19.58a1.099 1.099 0 000 2.198zm9.963 5.042h-2.971a1.099 1.099 0 100 2.198h2.97a1.1 1.1 0 000-2.198zm-6.74 0h-9.962a1.099 1.099 0 100 2.198h9.963a1.099 1.099 0 000-2.198zm-5.011-1.319h4.28a1.099 1.099 0 000-2.197h-4.28a1.099 1.099 0 100 2.197zM45 55.704h2.97a1.098 1.098 0 100-2.198H45a1.1 1.1 0 100 2.198zm0 3.723h1.545a1.099 1.099 0 100-2.197H45a1.099 1.099 0 100 2.197zm16.995-2.197h-4.102a1.099 1.099 0 100 2.197h4.102a1.099 1.099 0 100-2.197zM51.74 55.704h9.962a1.099 1.099 0 100-2.198h-9.963a1.1 1.1 0 100 2.198zm9.962 5.042h-2.971a1.099 1.099 0 000 2.198h2.971a1.099 1.099 0 000-2.198zm-6.74 0H45a1.099 1.099 0 100 2.198h9.962a1.1 1.1 0 000-2.198zm-5.011-1.319h4.28a1.099 1.099 0 100-2.197h-4.28a1.099 1.099 0 100 2.197zM59.96 27.36a4.19 4.19 0 00-4.185-4.184 4.19 4.19 0 00-4.184 4.185 4.19 4.19 0 004.184 4.185 4.19 4.19 0 004.185-4.185zm-6.172 0a1.988 1.988 0 013.974.001 1.99 1.99 0 01-1.987 1.987 1.989 1.989 0 01-1.987-1.987z"/></g><defs><clipPath id="clip0"><path fill="#fff" d="M0 0h75v75H0z"/></clipPath></defs></svg>
